flaticon/monuments/empire-state-building-1.svg

<svg xmlns="http://www.w3.org/2000/svg" width="32" height="32" viewBox="0 0 24 24">
    <path d="M6.800781 18L8.800781 18 8.800781 16 6.800781 16zM7.601562 16.800781L8 16.800781 8 17.199219 7.601562 17.199219zM9.601562 16L9.601562 18 11.601562 18 11.601562 16zM10.800781 17.199219L10.398438 17.199219 10.398438 16.800781 10.800781 16.800781zM12.398438 18L14.398438 18 14.398438 16 12.398438 16zM13.199219 16.800781L13.601562 16.800781 13.601562 17.199219 13.199219 17.199219zM15.199219 18L17.199219 18 17.199219 16 15.199219 16zM16 16.800781L16.398438 16.800781 16.398438 17.199219 16 17.199219zM16 16.800781"/>
    <path d="M 24 12 C 24 5.398438 18.601562 0 12 0 C 8.464844 0 5.277344 1.546875 3.074219 4 L 3.039062 4 L 2.921875 4.160156 C 2.703125 4.417969 2.492188 4.6875 2.296875 4.960938 C 1.527344 6.019531 0.925781 7.203125 0.53125 8.480469 C 0.433594 8.78125 0.351562 9.089844 0.28125 9.398438 L 0.199219 9.800781 L 0.203125 9.800781 C 0.0703125 10.515625 0 11.25 0 12 C 0 14.878906 1.027344 17.527344 2.730469 19.601562 L 2.679688 19.601562 L 3.320312 20.28125 C 4.160156 21.160156 5.121094 21.921875 6.199219 22.519531 C 6.261719 22.554688 6.324219 22.585938 6.382812 22.617188 L 6.800781 22.839844 L 6.800781 22.824219 C 7.78125 23.292969 8.828125 23.628906 9.90625 23.816406 L 10 23.839844 L 10 23.832031 C 10.246094 23.875 10.496094 23.90625 10.746094 23.933594 C 10.765625 23.9375 10.78125 23.9375 10.800781 23.941406 L 10.800781 24 L 13.199219 24 L 13.199219 23.941406 C 13.21875 23.9375 13.234375 23.9375 13.253906 23.933594 C 13.503906 23.90625 13.753906 23.875 14 23.832031 L 14 23.839844 L 14.09375 23.816406 C 15.171875 23.628906 16.21875 23.292969 17.199219 22.824219 L 17.199219 22.839844 L 17.617188 22.617188 C 17.675781 22.585938 17.738281 22.554688 17.800781 22.519531 C 18.839844 21.921875 19.839844 21.160156 20.679688 20.28125 L 21.320312 19.601562 L 21.269531 19.601562 C 22.972656 17.527344 24 14.878906 24 12 Z M 1.640625 7.753906 C 1.96875 6.960938 2.386719 6.210938 2.878906 5.523438 C 3.042969 5.300781 3.21875 5.085938 3.398438 4.878906 C 3.480469 4.878906 3.519531 4.878906 3.601562 4.878906 C 4.039062 4.921875 4.441406 5.238281 4.679688 5.640625 C 4.839844 5.878906 4.878906 6.078125 4.878906 6.320312 C 4.839844 6.679688 5.078125 7.039062 5.441406 7.238281 C 5.839844 7.398438 6.039062 7.800781 6 8.238281 C 5.960938 8.71875 5.480469 9.121094 4.921875 9.121094 L 1.199219 9.121094 C 1.316406 8.652344 1.464844 8.195312 1.640625 7.753906 Z M 6 21.441406 C 5.964844 21.417969 5.929688 21.398438 5.894531 21.375 C 5.445312 21.082031 5.015625 20.753906 4.613281 20.398438 L 6 20.398438 Z M 9.199219 22.839844 C 8.921875 22.761719 8.679688 22.679688 8.398438 22.601562 L 8.398438 19.601562 L 9.199219 19.601562 Z M 12.398438 23.191406 C 12.398438 23.191406 12.398438 23.191406 12.394531 23.191406 C 12.371094 23.191406 12.34375 23.195312 12.320312 23.195312 C 12.210938 23.199219 12.105469 23.199219 12 23.199219 C 11.894531 23.199219 11.789062 23.199219 11.679688 23.195312 C 11.65625 23.195312 11.628906 23.191406 11.605469 23.191406 C 11.601562 23.191406 11.601562 23.191406 11.601562 23.191406 L 11.601562 19.601562 L 12.398438 19.601562 Z M 15.601562 22.601562 C 15.320312 22.679688 15.078125 22.761719 14.800781 22.839844 L 14.800781 19.601562 L 15.601562 19.601562 Z M 17.199219 19.601562 L 17.199219 21.910156 C 16.9375 22.046875 16.671875 22.175781 16.398438 22.292969 L 16.398438 18.800781 L 14 18.800781 L 14 23.019531 C 13.734375 23.066406 13.46875 23.105469 13.199219 23.132812 L 13.199219 18.800781 L 10.800781 18.800781 L 10.800781 23.132812 C 10.53125 23.105469 10.265625 23.066406 10 23.019531 L 10 18.800781 L 7.601562 18.800781 L 7.601562 22.292969 C 7.328125 22.175781 7.0625 22.046875 6.800781 21.910156 L 6.800781 19.601562 L 5.601562 19.601562 L 5.601562 15.601562 L 18.398438 15.601562 L 18.398438 19.601562 Z M 10.800781 12.398438 L 15.601562 12.398438 L 15.601562 13.199219 L 8.398438 13.199219 L 8.398438 12.398438 Z M 9.601562 11.601562 L 9.601562 10.398438 L 10.398438 10.398438 L 10.398438 8.800781 L 10.800781 8.800781 L 10.800781 11.601562 Z M 11.601562 10.398438 L 11.601562 10 L 12.398438 10 L 12.398438 10.398438 Z M 12.398438 11.199219 L 12.398438 11.601562 L 11.601562 11.601562 L 11.601562 11.199219 Z M 12.398438 6.800781 L 11.601562 6.800781 L 11.601562 6.398438 L 12.398438 6.398438 Z M 12.398438 7.601562 L 12.398438 8 L 11.601562 8 L 11.601562 7.601562 Z M 12.398438 8.800781 L 12.398438 9.199219 L 11.601562 9.199219 L 11.601562 8.800781 Z M 14.398438 10.398438 L 14.398438 11.601562 L 13.199219 11.601562 L 13.199219 8.800781 L 13.601562 8.800781 L 13.601562 10.398438 Z M 16.398438 14 L 16.398438 14.800781 L 7.601562 14.800781 L 7.601562 14 Z M 19.199219 20.5625 C 18.816406 20.867188 18.40625 21.167969 18 21.441406 L 18 20.398438 L 19.386719 20.398438 C 19.324219 20.453125 19.261719 20.507812 19.199219 20.5625 Z M 20.207031 19.601562 L 19.199219 19.601562 L 19.199219 14.800781 L 17.199219 14.800781 L 17.199219 13.199219 L 16.398438 13.199219 L 16.398438 11.601562 L 15.199219 11.601562 L 15.199219 9.601562 L 14.398438 9.601562 L 14.398438 8 L 13.199219 8 L 13.199219 5.601562 L 12.398438 5.601562 L 12.398438 2 C 12.398438 1.761719 12.238281 1.601562 12 1.601562 C 11.761719 1.601562 11.601562 1.761719 11.601562 2 L 11.601562 5.601562 L 10.800781 5.601562 L 10.800781 8 L 9.601562 8 L 9.601562 9.601562 L 8.800781 9.601562 L 8.800781 11.601562 L 7.601562 11.601562 L 7.601562 13.199219 L 6.800781 13.199219 L 6.800781 14.800781 L 4.800781 14.800781 L 4.800781 19.601562 L 3.792969 19.601562 C 1.9375 17.597656 0.800781 14.925781 0.800781 12 C 0.800781 11.289062 0.867188 10.59375 0.996094 9.921875 C 0.996094 9.921875 1 9.921875 1 9.921875 L 4.921875 9.921875 C 5.878906 9.921875 6.679688 9.199219 6.761719 8.28125 C 6.878906 7.558594 6.480469 6.839844 5.800781 6.480469 C 5.679688 6.398438 5.640625 6.320312 5.640625 6.238281 C 5.640625 5.839844 5.558594 5.519531 5.359375 5.160156 C 5.074219 4.648438 4.609375 4.269531 4.085938 4.09375 C 6.117188 2.0625 8.917969 0.800781 12 0.800781 C 18.160156 0.800781 23.199219 5.839844 23.199219 12 C 23.199219 14.925781 22.0625 17.597656 20.207031 19.601562 Z M 20.207031 19.601562"/>
</svg>

<svg xmlns="http://www.w3.org/2000/svg" width="32" height="32" viewBox="0 0 24 24">
    <path d="M6.8 18h2v-2h-2zm.802-1.2H8v.4h-.398zm0 0M9.602 16v2h2v-2zm1.199 1.2h-.403v-.4h.403zm0 0M12.398 18h2v-2h-2zm.801-1.2h.403v.4h-.403zm0 0M15.2 18h2v-2h-2zm.8-1.2h.398v.4H16zm0 0"/>
    <path d="M24 12c0-6.602-5.398-12-12-12-3.535 0-6.723 1.547-8.926 4H3.04l-.117.16c-.219.258-.43.527-.625.8A12.01 12.01 0 0 0 .53 8.48c-.097.301-.18.61-.25.918L.2 9.801h.004a11.947 11.947 0 0 0 2.527 9.8h-.05l.64.68c.84.88 1.801 1.64 2.88 2.239.062.035.124.066.183.097l.418.223v-.016c.98.469 2.027.805 3.105.992l.094.024v-.008c.246.043.496.074.746.102.02.003.035.003.055.007V24h2.398v-.059c.02-.003.035-.003.055-.007.25-.028.5-.059.746-.102v.008l.094-.024a11.96 11.96 0 0 0 3.105-.992v.016l.418-.223c.059-.031.121-.062.184-.097 1.039-.598 2.039-1.36 2.879-2.239l.64-.68h-.05A11.947 11.947 0 0 0 24 12zM1.64 7.754c.329-.793.747-1.543 1.239-2.23.164-.223.34-.438.52-.645h.203c.437.043.84.36 1.078.762.16.238.199.437.199.68-.04.359.2.718.562.917.399.16.598.563.559 1-.04.48-.52.883-1.078.883H1.199c.117-.469.266-.926.442-1.367zM6 21.44l-.105-.066c-.45-.293-.88-.621-1.282-.977H6zm3.2 1.399c-.278-.078-.52-.16-.802-.238v-3H9.2zm3.198.351h-.003c-.024 0-.051.004-.075.004-.11.004-.215.004-.32.004-.105 0-.21 0-.32-.004-.024 0-.051-.004-.075-.004h-.003v-3.59h.796zm3.204-.59c-.282.079-.524.16-.801.239v-3.238h.8zm1.597-3v2.31c-.262.136-.527.265-.8.382v-3.492H14v4.219c-.266.046-.531.085-.8.113V18.8h-2.4v4.332c-.269-.028-.534-.067-.8-.113V18.8H7.602v3.493c-.274-.117-.54-.246-.801-.383v-2.308H5.6v-4h12.797v4zm-6.398-7.203h4.8v.801H8.399v-.8zm-1.2-.796v-1.204h.797V8.801h.403v2.8zm2-1.204V10h.797v.398zm.797.801v.403h-.796v-.403zm0-4.398h-.796v-.403h.796zm0 .8V8h-.796v-.398zm0 1.2v.398h-.796v-.398zm2 1.597v1.204H13.2V8.8h.403v1.597zm2 3.602v.8H7.602V14zm2.801 6.563c-.383.304-.793.605-1.199.878v-1.043h1.387l-.188.165zm1.008-.961h-1.008V14.8h-2v-1.602h-.8v-1.597h-1.2v-2h-.8V8h-1.2V5.602h-.8V2c0-.238-.16-.398-.399-.398-.238 0-.398.16-.398.398v3.602H10.8V8H9.6v1.602h-.8v2H7.6v1.597h-.8v1.602h-2v4.8H3.793a11.161 11.161 0 0 1-2.797-9.68h3.926c.957 0 1.758-.722 1.84-1.64.117-.722-.282-1.441-.961-1.8-.121-.083-.16-.16-.16-.243a2.08 2.08 0 0 0-.282-1.078 2.317 2.317 0 0 0-1.273-1.066A11.171 11.171 0 0 1 12 .8C18.16.8 23.2 5.84 23.2 12c0 2.926-1.137 5.598-2.993 7.602zm0 0"/>
</svg>
